contributed-vectors/commbank.svg

<?xml version="1.0" encoding="UTF-8" standalone="no"?>
<svg
   xmlns:dc="http://purl.org/dc/elements/1.1/"
   xmlns:cc="http://creativecommons.org/ns#"
   xmlns:rdf="http://www.w3.org/1999/02/22-rdf-syntax-ns#"
   xmlns:svg="http://www.w3.org/2000/svg"
   xmlns="http://www.w3.org/2000/svg"
   xmlns:sodipodi="http://sodipodi.sourceforge.net/DTD/sodipodi-0.dtd"
   xmlns:inkscape="http://www.inkscape.org/namespaces/inkscape"
   viewBox="0 0 192 192"
   version="1.1"
   id="svg10"
   sodipodi:docname="commbank.svg"
   inkscape:version="0.92.3 (2405546, 2018-03-11)">
  <metadata
     id="metadata16">
    <rdf:RDF>
      <cc:Work
         rdf:about="">
        <dc:format>image/svg+xml</dc:format>
        <dc:type
           rdf:resource="http://purl.org/dc/dcmitype/StillImage" />
      </cc:Work>
    </rdf:RDF>
  </metadata>
  <defs
     id="defs14">
    <style
       id="style3744">.cls-1{fill:#f7cb46;stroke-width:0.09px;}.cls-1,.cls-2{stroke:#f7cb46;stroke-miterlimit:2.61;}.cls-1,.cls-3{fill-rule:evenodd;}.cls-2{fill:none;stroke-width:0.14px;}.cls-3{fill:#221f20;}</style>
  </defs>
  <sodipodi:namedview
     pagecolor="#ffffff"
     bordercolor="#666666"
     borderopacity="1"
     objecttolerance="10"
     gridtolerance="10"
     guidetolerance="10"
     inkscape:pageopacity="0"
     inkscape:pageshadow="2"
     inkscape:window-width="1366"
     inkscape:window-height="705"
     id="namedview12"
     showgrid="false"
     inkscape:zoom="1.2291667"
     inkscape:cx="276.95259"
     inkscape:cy="143.19845"
     inkscape:window-x="0"
     inkscape:window-y="30"
     inkscape:window-maximized="1"
     inkscape:current-layer="svg10" />
  <title
     id="title2">Yandex.Taxi</title>
  <g
     id="g30">
    <g
       id="g4599">
      <path
         style="fill:#f9de81;stroke-width:0.83774978"
         d="M 96.123047 8.8378906 A 8.3774979 8.3774979 0 0 0 90.076172 11.289062 L 11.289062 90.076172 A 8.3774979 8.3774979 0 0 0 11.289062 101.92383 L 50.683594 141.31641 L 90.076172 180.71094 A 8.3774979 8.3774979 0 0 0 101.92383 180.71094 L 180.71094 101.92383 A 8.3774979 8.3774979 0 0 0 180.71094 90.076172 L 141.31641 50.683594 L 101.92383 11.289062 A 8.3774979 8.3774979 0 0 0 96.123047 8.8378906 z "
         id="path4" />
      <path
         inkscape:connector-curvature="0"
         d="m 137.92255,101.08358 27.50296,-26.431265 15.35653,15.423899 c 3.26445,3.278774 3.27162,8.575959 0,11.847576 l -79.41106,79.3408 c -1.57687,1.26323 -3.329358,1.82399 -5.193534,1.93799 z"
         style="fill:#56595b;stroke-width:0.83774978"
         id="path8"
         sodipodi:nodetypes="ccssccc" />
    </g>
  </g>
</svg>

<svg xmlns="http://www.w3.org/2000/svg" id="svg10" version="1.1" viewBox="0 0 192 192"><defs id="defs14"><style id="style3744">.cls-1{fill:#f7cb46;stroke-width:.09px}.cls-1,.cls-2{stroke:#f7cb46;stroke-miterlimit:2.61}.cls-1,.cls-3{fill-rule:evenodd}.cls-2{fill:none;stroke-width:.14px}.cls-3{fill:#221f20}</style></defs><g id="g30"><g id="g4599"><path id="path4" d="M96.123 8.838a8.377 8.377 0 0 0-6.047 2.451L11.29 90.076a8.377 8.377 0 0 0 0 11.848l39.395 39.392 39.392 39.395a8.377 8.377 0 0 0 11.848 0l78.787-78.787a8.377 8.377 0 0 0 0-11.848l-39.395-39.392-39.392-39.395a8.377 8.377 0 0 0-5.801-2.451z" style="fill:#f9de81;stroke-width:.83774978"/><path id="path8" d="m137.923 101.084 27.503-26.432 15.356 15.424c3.264 3.279 3.272 8.576 0 11.848l-79.411 79.34c-1.577 1.264-3.33 1.825-5.194 1.939z" style="fill:#56595b;stroke-width:.83774978"/></g></g></svg>
